icon/googl.svg

<svg xmlns="http://www.w3.org/2000/svg" viewBox="0 0 42.29 42.29"><g data-name="Layer 2"><path d="M42.29 19.66v3.14a5.35 5.35 0 00-.18 1.2 21.16 21.16 0 01-4.54 10.46 18.35 18.35 0 01-3.2 3.15l-.51-.41L27.5 32a12.87 12.87 0 004.5-4.43 14.28 14.28 0 00.83-1.66c.14-.3.07-.37-.25-.37H22c-.31 0-.39-.09-.39-.39v-7.6c0-.27.06-.38.36-.38h19.6c.26 0 .36.07.4.34.09.64.19 1.27.23 1.92.02.09 0 .18.09.23z" fill="#518ef7"/><path d="M34.37 37.61a.6.6 0 01-.11.12 21.13 21.13 0 01-9.9 4.32 9.14 9.14 0 00-1.64.24H19.5a8.74 8.74 0 00-1.5-.24A21 21 0 012.58 31.27a.56.56 0 010-.12l6.83-5.57a13 13 0 003.5 5 12.58 12.58 0 0014.3 1.58l.29-.16 6.36 5.19z" fill="#28b346"/><path d="M34.39 5.09c-2.12 1.71-4.22 3.44-6.33 5.17a.38.38 0 01-.53.06 12.57 12.57 0 00-18.19 6.52l-.09.16L7 15.19l-4.62-3.74a18.31 18.31 0 012.85-4.22A20.54 20.54 0 0117.28.37a20.81 20.81 0 0117.1 4.28c.21.16.25.24.01.44z" fill="#f04336"/><path d="M9.37 25.58l-6.83 5.57A19.26 19.26 0 01.36 25a21 21 0 011.76-13.08c.08-.16.17-.31.26-.47L7 15.19 9.25 17a14.84 14.84 0 00-.67 3.75 13.55 13.55 0 00.79 4.83z" fill="#faba01"/></g></svg>

<svg xmlns="http://www.w3.org/2000/svg" viewBox="0 0 42.29 42.29"><defs><style>.cls-1{fill:#518ef7;}.cls-2{fill:#28b346;}.cls-3{fill:#f04336;}.cls-4{fill:#faba01;}</style></defs><title>جوجل</title><g id="Layer_2" data-name="Layer 2"><g id="Layer_2-2" data-name="Layer 2"><path class="cls-1" d="M42.29,19.66V22.8a5.35,5.35,0,0,0-.18,1.2,21.16,21.16,0,0,1-4.54,10.46,18.35,18.35,0,0,1-3.2,3.15l-.51-.41L27.5,32A12.87,12.87,0,0,0,32,27.57a14.28,14.28,0,0,0,.83-1.66c.14-.3.07-.37-.25-.37H27c-1.66,0-3.33,0-5,0-.31,0-.39-.09-.39-.39,0-2.53,0-5.07,0-7.6,0-.27.06-.38.36-.38q9.81,0,19.6,0c.26,0,.36.07.4.34.09.64.19,1.27.23,1.92C42.22,19.52,42.2,19.61,42.29,19.66Z"/><path class="cls-2" d="M34.37,37.61a.6.6,0,0,1-.11.12,21.13,21.13,0,0,1-9.9,4.32,9.14,9.14,0,0,0-1.64.24H19.5A8.74,8.74,0,0,0,18,42.05,21,21,0,0,1,2.58,31.27a.56.56,0,0,1,0-.12l6.83-5.57h0a13,13,0,0,0,3.5,5,12.58,12.58,0,0,0,14.3,1.58L27.5,32l6.36,5.19Z"/><path class="cls-3" d="M34.39,5.09c-2.12,1.71-4.22,3.44-6.33,5.17a.38.38,0,0,1-.53.06A12.57,12.57,0,0,0,9.34,16.84L9.25,17,7,15.19,2.38,11.45A18.31,18.31,0,0,1,5.23,7.23,20.54,20.54,0,0,1,17.28.37a20.81,20.81,0,0,1,17.1,4.28C34.59,4.81,34.63,4.89,34.39,5.09Z"/><path class="cls-4" d="M9.37,25.58h0L2.54,31.15A19.26,19.26,0,0,1,.36,25,21,21,0,0,1,2.12,11.92c.08-.16.17-.31.26-.47L7,15.19,9.25,17a14.84,14.84,0,0,0-.67,3.75A13.55,13.55,0,0,0,9.37,25.58Z"/></g></g></svg>
